X:118
T:Trip To The Cottage. RHu.118
S:R.Hughes MS,1823,Whitchurch,Shrops.
N:cr at bar eight is dotted in ms. rest added at end of bar sixteen
A:Whitchurch, Shropshire
Z:Tony Weatherall 2006
M:6/8
L:1/8
Q:3/8=120
R:Jig
K:G
d|dBB BGG|cAA AFD|DGG FAA|BAA A2d|!
dBB BGG|cAA AFD|DGG FAA|BGG “”G2:|!
|:d|gfe dcB|cAA BGG|gfe dcB|cAA A2d|!
gfe dcB|cde d2d|efg fge|””d3-dz:|

